X: 277
T:Koftos
O:Greece
F: http://www.youtube.com/watch?v=AFrCAz9fD60
F: http://www.youtube.com/watch?v=tEy-3IqbGMQ
M:4/4
L:1/8
Q:1/4=160
%%MIDI gchord fzzzfzfz
K:Em
   D2           |:"e"E3D"d"FGAG|"e"A2GF"d"E2D2|"e"E3D"d"FGAG |"g"G2DF"g"G2D2|
   "e"E3D"d"FGAG|"d"A2GF"e"E2D2|"e"GFEG"d"FEDF|"a"E2 z6      :|
|: "e"B3A"g"Bcde|"g"dcBA"g"G2D2|"e"B3A"g"Bcde |"g"dcBA"e"G2z2|
   "e"B3A"g"Bcde|"g"dcBA"g"G2D2|"e"GFEG"d"FEDF|"a"E2 z6      :|




